svg/fluentui-system-icons/ic_fluent_bluetooth_16_filled.svg

<svg width="16" height="16" viewBox="0 0 16 16" fill="none" xmlns="http://www.w3.org/2000/svg">
<path d="M7.41461 1.07918C7.6687 0.95214 7.97276 0.979557 8.20002 1.15L12.2 4.15C12.3848 4.28858 12.4954 4.50454 12.4999 4.73545C12.5044 4.96636 12.4022 5.18645 12.223 5.33209L8.93938 8L12.223 10.6679C12.4022 10.8136 12.5044 11.0337 12.4999 11.2646C12.4954 11.4955 12.3848 11.7114 12.2 11.85L8.20002 14.85C7.97276 15.0205 7.6687 15.0479 7.41461 14.9208C7.16053 14.7938 7.00002 14.5341 7.00002 14.25V9.57573L4.22297 11.8321C3.90149 12.0933 3.42914 12.0444 3.16794 11.7229C2.90674 11.4015 2.9556 10.9291 3.27708 10.6679L6.56067 8L3.27708 5.33209C2.9556 5.07089 2.90674 4.59854 3.16794 4.27706C3.42914 3.95558 3.90149 3.90672 4.22297 4.16792L7.00002 6.42428V1.75C7.00002 1.46593 7.16053 1.20623 7.41461 1.07918ZM8.50002 9.57573V12.75L10.5316 11.2264L8.50002 9.57573ZM8.50002 6.42428L10.5316 4.77365L8.50002 3.25V6.42428Z" fill="#212121"/>
</svg>

<svg xmlns="http://www.w3.org/2000/svg" width="16" height="16"><path d="M7.415 1.08a.75.75 0 0 1 .785.07l4 3a.75.75 0 0 1 .023 1.182L8.939 8l3.284 2.668a.75.75 0 0 1-.023 1.182l-4 3a.75.75 0 0 1-1.2-.6V9.576l-2.777 2.256a.75.75 0 0 1-.946-1.164L6.561 8 3.277 5.332a.75.75 0 1 1 .946-1.164L7 6.424V1.75a.75.75 0 0 1 .415-.67ZM8.5 9.575v3.174l2.032-1.524L8.5 9.576Zm0-3.152 2.032-1.65L8.5 3.25v3.174Z"/></svg>
